SVG_Azure_Grouped/Data/SQL Server Import Export.svg

<?xml version="1.0" encoding="UTF-8" standalone="no"?>
<!-- Generated by Microsoft Visio, SVG Export SQL Server Import Export.svg Page-1 -->

<svg
   xmlns:dc="http://purl.org/dc/elements/1.1/"
   xmlns:cc="http://creativecommons.org/ns#"
   xmlns:rdf="http://www.w3.org/1999/02/22-rdf-syntax-ns#"
   xmlns:svg="http://www.w3.org/2000/svg"
   xmlns="http://www.w3.org/2000/svg"
   xmlns:sodipodi="http://sodipodi.sourceforge.net/DTD/sodipodi-0.dtd"
   xmlns:inkscape="http://www.inkscape.org/namespaces/inkscape"
   width="0.78741676in"
   height="0.66926616in"
   viewBox="0 0 56.693915 48.187113"
   xml:space="preserve"
   class="st6"
   version="1.1"
   id="svg97"
   sodipodi:docname="SQL Server Import Export.svg"
   style="font-size:12px;overflow:visible;color-interpolation-filters:sRGB;fill:none;fill-rule:evenodd;stroke-linecap:square;stroke-miterlimit:3"
   inkscape:version="0.92.5 (2060ec1f9f, 2020-04-08)"><metadata
   id="metadata101"><rdf:RDF><cc:Work
       rdf:about=""><dc:format>image/svg+xml</dc:format><dc:type
         rdf:resource="http://purl.org/dc/dcmitype/StillImage" /></cc:Work></rdf:RDF></metadata><sodipodi:namedview
   pagecolor="#ffffff"
   bordercolor="#666666"
   borderopacity="1"
   objecttolerance="10"
   gridtolerance="10"
   guidetolerance="10"
   inkscape:pageopacity="0"
   inkscape:pageshadow="2"
   inkscape:window-width="640"
   inkscape:window-height="480"
   id="namedview99"
   showgrid="false"
   inkscape:zoom="1.5231687"
   inkscape:cx="37.800158"
   inkscape:cy="32.10913"
   inkscape:window-x="0"
   inkscape:window-y="0"
   inkscape:window-maximized="0"
   inkscape:current-layer="svg97" />
	<style
   type="text/css"
   id="style2">
	<![CDATA[
		.st1 {fill:#999999;stroke:none;stroke-linecap:butt;stroke-width:34}
		.st2 {fill:#999999;fill-opacity:0.5;stroke:none;stroke-linecap:butt;stroke-width:34}
		.st3 {fill:#949494;stroke:none;stroke-linecap:butt;stroke-width:34}
		.st4 {fill:url(#grad0-30);stroke:none;stroke-linecap:butt;stroke-width:34}
		.st5 {fill:url(#grad0-34);stroke:none;stroke-linecap:butt;stroke-width:34}
		.st6 {fill:none;fill-rule:evenodd;font-size:12px;overflow:visible;stroke-linecap:square;stroke-miterlimit:3}
	]]>
	</style>

	<defs
   id="Patterns_And_Gradients">
		<linearGradient
   id="grad0-30"
   x1="-0.003353307"
   y1="99.215934"
   x2="24.247903"
   y2="99.215934"
   gradientTransform="scale(1.0621421,0.9414936)"
   gradientUnits="userSpaceOnUse">
			<stop
   offset="0"
   stop-color="#773adc"
   stop-opacity="1"
   id="stop4" />
			<stop
   offset="1"
   stop-color="#a67af4"
   stop-opacity="1"
   id="stop6" />
		</linearGradient>
		<linearGradient
   id="grad0-34"
   x1="-0.00021336027"
   y1="99.204214"
   x2="24.248178"
   y2="99.204214"
   gradientTransform="scale(1.0620166,0.94160483)"
   gradientUnits="userSpaceOnUse">
			<stop
   offset="0"
   stop-color="#1b93eb"
   stop-opacity="1"
   id="stop9" />
			<stop
   offset="1"
   stop-color="#6bb9f2"
   stop-opacity="1"
   id="stop11" />
		</linearGradient>
	</defs>
	<g
   id="g95"
   transform="translate(-33.996438,-33.997198)">
		<title
   id="title15">Page-1</title>
		<g
   id="group18913-1"
   transform="translate(34,-34.0157)">
			<title
   id="title17">SQL Server Import Export.18913</title>
			<g
   id="group18914-2">
				<title
   id="title19">MsPortalFx.base.images-64</title>
				<g
   id="group18915-3"
   transform="translate(0.883764,-35.8071)">
					<title
   id="title21">Sheet.18915</title>
					<g
   id="shape18916-4">
						<title
   id="title23">Sheet.18916</title>
						<path
   d="m 1.83,103.82 h 4.12 v 11.47 a 0.913779,0.910041 0 0 1 -0.913779,0.91004 L 0.91,116.2 a 0.913779,0.910041 0 0 1 -0.913779,-0.91004 L 0,105.64 a 1.82756,1.82008 0 0 1 1.83,-1.82 z"
   class="st1"
   id="path25"
   inkscape:connector-curvature="0"
   style="fill:#999999;stroke:none;stroke-width:34;stroke-linecap:butt" />
					</g>
					<g
   id="shape18917-6">
						<title
   id="title28">Sheet.18917</title>
						<path
   d="m 1.83,103.82 h 4.12 v 11.47 a 0.913779,0.910041 0 0 1 -0.913779,0.91004 L 0.91,116.2 a 0.913779,0.910041 0 0 1 -0.913779,-0.91004 L 0,105.64 a 1.82756,1.82008 0 0 1 1.83,-1.82 z"
   class="st2"
   id="path30"
   inkscape:connector-curvature="0"
   style="fill:#999999;fill-opacity:0.5;stroke:none;stroke-width:34;stroke-linecap:butt" />
					</g>
				</g>
				<g
   id="group18918-8"
   transform="translate(49.2607,-35.8071)">
					<title
   id="title34">Sheet.18918</title>
					<g
   id="shape18919-9">
						<title
   id="title36">Sheet.18919</title>
						<path
   d="m 0,103.82 h 4.12 a 1.82756,1.82008 0 0 1 1.83,1.82 v 9.65 a 0.913779,0.910041 0 0 1 -0.913779,0.91004 L 0.91,116.2 a 0.913779,0.910041 0 0 1 -0.913779,-0.91004 z"
   class="st1"
   id="path38"
   inkscape:connector-curvature="0"
   style="fill:#999999;stroke:none;stroke-width:34;stroke-linecap:butt" />
					</g>
					<g
   id="shape18920-11">
						<title
   id="title41">Sheet.18920</title>
						<path
   d="m 0,103.82 h 4.12 a 1.82756,1.82008 0 0 1 1.83,1.82 v 9.65 a 0.913779,0.910041 0 0 1 -0.913779,0.91004 L 0.91,116.2 a 0.913779,0.910041 0 0 1 -0.913779,-0.91004 z"
   class="st2"
   id="path43"
   inkscape:connector-curvature="0"
   style="fill:#999999;fill-opacity:0.5;stroke:none;stroke-width:34;stroke-linecap:butt" />
					</g>
				</g>
				<g
   id="shape18921-13"
   transform="translate(0.883764,-42.3999)">
					<title
   id="title47">Sheet.18921</title>
					<path
   d="m 54.33,112.22 v 3.98 H 0 v -3.98 a 1.81088,1.80347 0 0 1 1.81,-1.8 H 52.5 a 1.81088,1.80347 0 0 1 1.83,1.8 z"
   class="st3"
   id="path49"
   inkscape:connector-curvature="0"
   style="fill:#949494;stroke:none;stroke-width:34;stroke-linecap:butt" />
				</g>
				<g
   id="group18922-15"
   transform="translate(0.883764,-0.00332132)">
					<title
   id="title52">Sheet.18922</title>
					<g
   id="shape18923-16">
						<title
   id="title54">Sheet.18923</title>
						<path
   d="m 0.91,103.82 h 4.13 a 0.913779,0.910041 0 0 1 0.913779,0.91004 L 5.95,116.2 H 1.83 A 1.82756,1.82008 0 0 1 0,114.38 v -9.65 a 0.913779,0.910041 0 0 1 0.913779,-0.91004 z"
   class="st1"
   id="path56"
   inkscape:connector-curvature="0"
   style="fill:#999999;stroke:none;stroke-width:34;stroke-linecap:butt" />
					</g>
					<g
   id="shape18924-18">
						<title
   id="title59">Sheet.18924</title>
						<path
   d="m 0.91,103.82 h 4.13 a 0.913779,0.910041 0 0 1 0.913779,0.91004 L 5.95,116.2 H 1.83 A 1.82756,1.82008 0 0 1 0,114.38 v -9.65 a 0.913779,0.910041 0 0 1 0.913779,-0.91004 z"
   class="st2"
   id="path61"
   inkscape:connector-curvature="0"
   style="fill:#999999;fill-opacity:0.5;stroke:none;stroke-width:34;stroke-linecap:butt" />
					</g>
				</g>
				<g
   id="group18925-20"
   transform="translate(49.2607)">
					<title
   id="title65">Sheet.18925</title>
					<g
   id="shape18926-21">
						<title
   id="title67">Sheet.18926</title>
						<path
   d="m 0.91,103.82 h 4.13 a 0.913779,0.910041 0 0 1 0.913779,0.91004 L 5.95,114.38 A 1.82756,1.82008 0 0 1 4.12,116.2 H 0 v -11.47 a 0.913779,0.910041 0 0 1 0.913779,-0.91004 z"
   class="st1"
   id="path69"
   inkscape:connector-curvature="0"
   style="fill:#999999;stroke:none;stroke-width:34;stroke-linecap:butt" />
					</g>
					<g
   id="shape18927-23">
						<title
   id="title72">Sheet.18927</title>
						<path
   d="m 0.91,103.82 h 4.13 a 0.913779,0.910041 0 0 1 0.913779,0.91004 L 5.95,114.38 A 1.82756,1.82008 0 0 1 4.12,116.2 H 0 v -11.47 a 0.913779,0.910041 0 0 1 0.913779,-0.91004 z"
   class="st2"
   id="path74"
   inkscape:connector-curvature="0"
   style="fill:#999999;fill-opacity:0.5;stroke:none;stroke-width:34;stroke-linecap:butt" />
					</g>
				</g>
				<g
   id="shape18928-25"
   transform="translate(0.883764,-0.00332132)">
					<title
   id="title78">Sheet.18928</title>
					<path
   d="m 0,114.4 v -3.98 h 54.33 v 3.98 a 1.81088,1.80347 0 0 1 -1.81,1.8 H 1.81 A 1.81088,1.80347 0 0 1 0,114.4 Z"
   class="st3"
   id="path80"
   inkscape:connector-curvature="0"
   style="fill:#949494;stroke:none;stroke-width:34;stroke-linecap:butt" />
				</g>
				<g
   id="shape18929-27"
   transform="translate(0,-13.144)">
					<title
   id="title83">Sheet.18929</title>
					<path
   d="m 14.97,93.57 10.42,10.38 a 1.2406,1.23553 0 0 1 0,1.75 l -10.42,10.38 a 0.553603,0.551338 0 0 1 -0.947128,-0.39191 L 14.02,109.31 a 0.553603,0.551338 -180 0 0 -0.553603,-0.55466 L 0.44,108.76 a 0.440214,0.438414 0 0 1 -0.443549,-0.44173 L 0,101.34 a 0.440214,0.438414 0 0 1 0.443549,-0.43841 L 13.47,100.9 a 0.553603,0.551338 -180 0 0 0.553603,-0.55466 L 14.02,93.96 a 0.553603,0.551338 0 0 1 0.947128,-0.385273 z"
   class="st4"
   id="path85"
   inkscape:connector-curvature="0"
   style="fill:url(#grad0-30);stroke:none;stroke-width:34;stroke-linecap:butt" />
				</g>
				<g
   id="shape18930-31"
   transform="translate(30.9384,-13.144)">
					<title
   id="title88">Sheet.18930</title>
					<path
   d="m 14.97,93.57 10.42,10.38 a 1.24727,1.24217 0 0 1 0,1.75 l -10.42,10.38 a 0.553603,0.551338 0 0 1 -0.947128,-0.39191 L 14.02,109.31 a 0.556938,0.55466 -180 0 0 -0.556938,-0.55466 L 0.44,108.76 A 0.440214,0.438414 0 0 1 -2.14e-4,108.31827 L 0,101.34 a 0.440214,0.438414 0 0 1 0.440214,-0.44173 L 13.47,100.9 a 0.556938,0.55466 -180 0 0 0.556938,-0.55466 L 14.02,93.96 a 0.553603,0.551338 0 0 1 0.947128,-0.385273 z"
   class="st5"
   id="path90"
   inkscape:connector-curvature="0"
   style="fill:url(#grad0-34);stroke:none;stroke-width:34;stroke-linecap:butt" />
				</g>
			</g>
		</g>
	</g>
</svg>

<?xml version="1.0" encoding="UTF-8" standalone="no"?>
<!DOCTYPE svg PUBLIC "-//W3C//DTD SVG 1.1//EN" "http://www.w3.org/Graphics/SVG/1.1/DTD/svg11.dtd">
<!-- Generated by Microsoft Visio, SVG Export SQL Server Import Export.svg Page-1 -->
<svg xmlns="http://www.w3.org/2000/svg" xmlns:xlink="http://www.w3.org/1999/xlink" xmlns:ev="http://www.w3.org/2001/xml-events"
		width="1.73185in" height="1.61396in" viewBox="0 0 124.693 116.205" xml:space="preserve" color-interpolation-filters="sRGB"
		class="st6">
	<style type="text/css">
	<![CDATA[
		.st1 {fill:#999999;stroke:none;stroke-linecap:butt;stroke-width:34}
		.st2 {fill:#999999;fill-opacity:0.5;stroke:none;stroke-linecap:butt;stroke-width:34}
		.st3 {fill:#949494;stroke:none;stroke-linecap:butt;stroke-width:34}
		.st4 {fill:url(#grad0-30);stroke:none;stroke-linecap:butt;stroke-width:34}
		.st5 {fill:url(#grad0-34);stroke:none;stroke-linecap:butt;stroke-width:34}
		.st6 {fill:none;fill-rule:evenodd;font-size:12px;overflow:visible;stroke-linecap:square;stroke-miterlimit:3}
	]]>
	</style>

	<defs id="Patterns_And_Gradients">
		<linearGradient id="grad0-30" x1="0" y1="0" x2="1" y2="0" gradientTransform="rotate(-90 0.5 0.5)">
			<stop offset="0" stop-color="#773adc" stop-opacity="1"/>
			<stop offset="1" stop-color="#a67af4" stop-opacity="1"/>
		</linearGradient>
		<linearGradient id="grad0-34" x1="0" y1="0" x2="1" y2="0" gradientTransform="rotate(-90 0.5 0.5)">
			<stop offset="0" stop-color="#1b93eb" stop-opacity="1"/>
			<stop offset="1" stop-color="#6bb9f2" stop-opacity="1"/>
		</linearGradient>
	</defs>
	<g>
		<title>Page-1</title>
		<g id="group18477-1" transform="translate(34,-34.0157)">
			<title>SQL Server Import Export.18477</title>
			<g id="group18478-2">
				<title>MsPortalFx.base.images-64</title>
				<g id="group18479-3" transform="translate(0.883764,-35.8071)">
					<title>Sheet.18479</title>
					<g id="shape18480-4">
						<title>Sheet.18480</title>
						<path d="M1.83 103.82 L5.95 103.82 L5.95 115.29 a0.913779 0.910041 0 0 1 -0.913779 0.910041 L0.91 116.2 a0.913779
									 0.910041 0 0 1 -0.913779 -0.910041 L0 105.64 A1.82756 1.82008 0 0 1 1.83 103.82 Z" class="st1"/>
					</g>
					<g id="shape18481-6">
						<title>Sheet.18481</title>
						<path d="M1.83 103.82 L5.95 103.82 L5.95 115.29 a0.913779 0.910041 0 0 1 -0.913779 0.910041 L0.91 116.2 a0.913779
									 0.910041 0 0 1 -0.913779 -0.910041 L0 105.64 A1.82756 1.82008 0 0 1 1.83 103.82 Z" class="st2"/>
					</g>
				</g>
				<g id="group18482-8" transform="translate(49.2607,-35.8071)">
					<title>Sheet.18482</title>
					<g id="shape18483-9">
						<title>Sheet.18483</title>
						<path d="M0 103.82 L4.12 103.82 A1.82756 1.82008 0 0 1 5.95 105.64 L5.95 115.29 a0.913779 0.910041 0 0 1
									 -0.913779 0.910041 L0.91 116.2 a0.913779 0.910041 0 0 1 -0.913779 -0.910041 L0 103.82 Z"
								class="st1"/>
					</g>
					<g id="shape18484-11">
						<title>Sheet.18484</title>
						<path d="M0 103.82 L4.12 103.82 A1.82756 1.82008 0 0 1 5.95 105.64 L5.95 115.29 a0.913779 0.910041 0 0 1
									 -0.913779 0.910041 L0.91 116.2 a0.913779 0.910041 0 0 1 -0.913779 -0.910041 L0 103.82 Z"
								class="st2"/>
					</g>
				</g>
				<g id="shape18485-13" transform="translate(0.883764,-42.3999)">
					<title>Sheet.18485</title>
					<path d="M54.33 112.22 L54.33 116.2 L0 116.2 L0 112.22 A1.81088 1.80347 0 0 1 1.81 110.42 L52.5 110.42 A1.81088
								 1.80347 0 0 1 54.33 112.22 Z" class="st3"/>
				</g>
				<g id="group18486-15" transform="translate(0.883764,-0.00332132)">
					<title>Sheet.18486</title>
					<g id="shape18487-16">
						<title>Sheet.18487</title>
						<path d="M0.91 103.82 L5.04 103.82 a0.913779 0.910041 0 0 1 0.913779 0.910041 L5.95 116.2 L1.83 116.2 A1.82756
									 1.82008 0 0 1 -0 114.38 L0 104.73 a0.913779 0.910041 0 0 1 0.913779 -0.910041 Z" class="st1"/>
					</g>
					<g id="shape18488-18">
						<title>Sheet.18488</title>
						<path d="M0.91 103.82 L5.04 103.82 a0.913779 0.910041 0 0 1 0.913779 0.910041 L5.95 116.2 L1.83 116.2 A1.82756
									 1.82008 0 0 1 -0 114.38 L0 104.73 a0.913779 0.910041 0 0 1 0.913779 -0.910041 Z" class="st2"/>
					</g>
				</g>
				<g id="group18489-20" transform="translate(49.2607,-2.27374E-13)">
					<title>Sheet.18489</title>
					<g id="shape18490-21">
						<title>Sheet.18490</title>
						<path d="M0.91 103.82 L5.04 103.82 a0.913779 0.910041 0 0 1 0.913779 0.910041 L5.95 114.38 A1.82756 1.82008
									 0 0 1 4.12 116.2 L0 116.2 L0 104.73 a0.913779 0.910041 0 0 1 0.913779 -0.910041 Z" class="st1"/>
					</g>
					<g id="shape18491-23">
						<title>Sheet.18491</title>
						<path d="M0.91 103.82 L5.04 103.82 a0.913779 0.910041 0 0 1 0.913779 0.910041 L5.95 114.38 A1.82756 1.82008
									 0 0 1 4.12 116.2 L0 116.2 L0 104.73 a0.913779 0.910041 0 0 1 0.913779 -0.910041 Z" class="st2"/>
					</g>
				</g>
				<g id="shape18492-25" transform="translate(0.883764,-0.00332132)">
					<title>Sheet.18492</title>
					<path d="M0 114.4 L0 110.42 L54.33 110.42 L54.33 114.4 A1.81088 1.80347 0 0 1 52.52 116.2 L1.81 116.2 A1.81088
								 1.80347 0 0 1 0 114.4 Z" class="st3"/>
				</g>
				<g id="shape18493-27" transform="translate(0,-13.144)">
					<title>Sheet.18493</title>
					<path d="M14.97 93.57 L25.39 103.95 A1.2406 1.23553 0 0 1 25.39 105.7 L14.97 116.08 a0.553603 0.551338 0 0 1
								 -0.947128 -0.391915 L14.02 109.31 a0.553603 0.551338 -180 0 0 -0.553603 -0.55466 L0.44 108.76 a0.440214
								 0.438414 0 0 1 -0.443549 -0.441735 L0 101.34 a0.440214 0.438414 0 0 1 0.443549 -0.438414 L13.47
								 100.9 a0.553603 0.551338 -180 0 0 0.553603 -0.55466 L14.02 93.96 a0.553603 0.551338 0 0 1 0.947128
								 -0.385273 Z" class="st4"/>
				</g>
				<g id="shape18494-31" transform="translate(30.9384,-13.144)">
					<title>Sheet.18494</title>
					<path d="M14.97 93.57 L25.39 103.95 A1.24727 1.24217 0 0 1 25.39 105.7 L14.97 116.08 a0.553603 0.551338 0 0 1
								 -0.947128 -0.391915 L14.02 109.31 a0.556938 0.55466 -180 0 0 -0.556938 -0.55466 L0.44 108.76 a0.440214
								 0.438414 0 0 1 -0.440214 -0.441735 L0 101.34 a0.440214 0.438414 0 0 1 0.440214 -0.441735 L13.47
								 100.9 a0.556938 0.55466 -180 0 0 0.556938 -0.55466 L14.02 93.96 a0.553603 0.551338 0 0 1 0.947128
								 -0.385273 Z" class="st5"/>
				</g>
			</g>
		</g>
	</g>
</svg>
